X:1
T:Lynchburg Town
M:2/4
L:1/8
K:G
 BB d3/2 d/2| G3 G| BB B3/2 B/2| A3 z| BB e e/2e/2| dd B3/2 B/2| d d/2d/2 BA|\
 G3 z| B3/2 B/2 dd| G4| BB BB| A3 z| B B/2B/2 BB| dd B3/2 B/2| dd BA|\
 G3 z| BB dd| GG G2| BB BB| A3 z| BB/2-B/2 BB| dd B G/2G/2| B/2B/2 dB A|\
 G3 z|
